X:20
T:Eddie Kelly's
R:jig
D:Snug in the Blanket,P.O'Brien,J.Gans,D.Sproule
S:Eddie Kelly, Galway, fiddle and accordion
Z:Paul Stewart Cranford (P.S.C.), <http://www.cranfordpub.com>
L:1/8
Q:333
M:6/8
K:Edor
A|:GEE BGB|eBd cAG|FDD AFA|dfd AFB|
GEE BGB|eBd cAG|FEF DFA|[1GEE EBA:|[2GEE E2||
|:F|EGB e2 f|geg fed|DFA d2 e|fef dGF|
EGB e2 f|geg fed|BcB AGF|GEE E2:|
